X:881
%%stretchlast 1
T:If You're Irish #2
C:Joe Buchanan's Scottish Tome - Page 438.2-439.1
I:438 2
Z:Carl Allison
R:Two-step
L:1/8
M:6/8
K:C
g>f | e2 G4- | G2 G GAG | ^F6 | d4 d>e |
f3 g2 f | e3 d3 | c6- | c3 cde |
f6 | A6 | G2 ^F G2 c | e6 |
ddd d2 d | d2 e d2 c | B2 G B2 d | g4 g>f |
e2 G4- | G2 G GAG | ^F6 | d3 d>e |
f3 g2 f | e3 ^d3 | e6- | e3 e2 f |
ggg gfe | f2 e def | ggg g2 e | f2 e def |
g3 e3 | fgf e2 d | c6- | c4 |]
